X:5733
T:Gan ainm
R:Strathspey
S:(Unknown group)
H:
N:
D:
Z:Adrian Scahill
M:4/4
L:1/8
K:G
B|c<A Ac B<B GB|c<A AB cded|c<A Ac B<G GB|(3cBA BG EAAB:||\
c2ec ge (3dBA|G2 BG DGBG|c2 ec gced|e<a ag e<a ab|\
g<e eg f<d df|e<c ce dBGB|ABcd e=fed|(3cBA BG E<A AB:||
